!!!COM: Music21
!!!OTL: slide_Game-Cock--The
!!!OMV: slide_Game-Cock--The
**kern
*clefG2
*k[f#c#]
*D:
*M12/8
=1
8e
=
4f#
8a
4dd
8a
8bL
8a
8bJ
4dd
8a
=
8bL
8a
8f#J
4a
8f#
4.e
4e
16dLL
16eJJ
=
4f#
8a
4dd
8a
8bL
8a
8bJ
4dd
8a
!!linebreak:original
=
8bL
8cc#
8ddJ
4a
8f#
4.d
4d
8ryy
=||
*M12/8
8e
=
4f#
8a
4dd
8a
8bL
8a
8bJ
4dd
8a
=
8bL
8a
8f#J
4a
8f#
4.e
4e
16dLL
16eJJ
!!linebreak:original
=
4f#
8a
4dd
8a
8bL
8a
8bJ
4dd
8a
=
8bL
8cc#
8ddJ
4a
8f#
4.d
4d
8ryy
=||
8ee
1ryy
4.ryy
=
4.ff#
4ff#
8ee
4dd
8ee
4ff#
8gg
=
4aa
8ff#
8ddL
8ee
8ff#J
4.ee
4ee
8gg
!!linebreak:original
=
4.ff#
4ff#
8ee
4dd
8ee
4ff#
8a
=
8bL
8cc#
8ddJ
4a
8f#
4.d
4d
8ee
=
4.ff#
4ff#
8ee
4dd
8ee
4ff#
8gg
=
4aa
8ff#
8ddL
8ee
8ff#J
4.ee
4a
8dd
=
8ff#L
8ee
8ff#J
4aa
8ff#
8eeL
8dd
8eeJ
4ff#
8a
!!linebreak:original
=
8bL
8cc#
8ddJ
4a
8f#
4.d
4d
8ryy
=||
*-
